X:1
T:Dudley, 66.66.88
T:Dudley, 66.66.88
T:Edward Francis Rimbault (1816-1876)
T:Public Domain Courtesy of the Cyber Hymnal™
C:Edward Francis Rimbault (1816-1876)
Z:Public Domain
Z:Courtesy of the Cyber Hymnal™
%%score ( 1 2 ) ( 3 4 )
L:1/8
Q:1/4=115
M:4/4
K:C
V:1 treble 
V:2 treble 
V:3 bass 
V:4 bass 
V:1
 C2 | E2 C2 E2 A2 | G6 [GB]2 | [Gc]2 [GB]2 [Gc]2 [Fd]2 | [Ee]6 E2 | E2 [EA]2 [Dd]2 [Dc]2 | %6
 [DB]2 [DG]2 [CE]2 [FA]2 | [EA]4 [E^G]4 | [EA]6 A2 | G4 F4 | E6 [DE]2 | [CE]2 [DE]2 [CE]2 [FG]2 | %12
 [EG]2 [FG]2 [EG]2 [Fc]2 | [Fe]4 d4 | [Ec]6 |] %15
V:2
 C2 | E2 C2 E2 A2 | G6 x2 | x8 | x6 E2 | E2 x6 | x8 | x8 | x6 A2 | G4 F4 | E6 x2 | x8 | x8 | %13
 x4 (G2 F2) | x6 |] %15
V:3
 C,2 | E,2 C,2 E,2 A,2 | G,6 [F,D]2 | [E,C]2 [F,D]2 [E,C]2 [D,B,]2 | [C,C]6 [^G,B,]2 | %5
 [A,C]2 [A,C]2 [^F,A,]2 [F,A,]2 | [G,B,]2 [G,B,]2 A,2 [D,B,]2 | [E,C]4 (B,2 D2) | [A,,C]6 A,2 | %9
 G,4 F,4 | E,6 [^G,B,]2 | A,2 [^G,B,]2 A,2 [B,D]2 | C2 [B,D]2 C2 [A,C]2 | [G,C]4 [G,B,]4 | %14
 [C,C]6 |] %15
V:4
 C,2 | E,2 C,2 E,2 A,2 | G,6 x2 | x8 | x8 | x8 | x4 A,2 x2 | x4 E,4 | x6 A,2 | G,4 F,4 | E,6 x2 | %11
 A,2 A,2 x4 | C2 C2 x4 | x8 | x6 |] %15

